X: 57
T:Kitchen Girl
% Nottingham Music Database
S:via PR
M:4/4
L:1/4
K:D
"A"[c2 a2 ]"G"[B2g2]|"A"e/2f/2e/2d/2 cc/2d/2|"A"e/2c/2e/2f/2 "G"g/2a/2b/2a/2|\
"E"^ge ee/2=g/2|
"A"a/2b/2a/2f/2 "G"g/2a/2g/2f/2|"A"e/2f/2e/2d/2 c/2d/2e/2f/2|\
"G"gd "E"e/2f/2e/2d/2|"A"cA A2::
"Am"=cc/2A/2 "G"B/2A/2G/2B/2|"Am"A/2B/2A/2G/2 E/2D/2E/2G/2|\
"Am"A/2G/2A/2B/2 "C"=c/2B/2c/2d/2|"Em"ee/2g/2 e/2d/2B/2A/2|
"Am"=cc/2A/2 "G"B/2A/2G/2B/2|"Am"A/2B/2A/2G/2 E/2D/2E/2G/2|\
"Am"=c/2B/2A/2c/2 "G"B/2A/2G/2B/2|"Am"A3/2B/2 A2:|<end>
<start>
